;FLAVOR:Marlin
;TIME:3325
;Filament used: 1.8846m
;Layer height: 0.2
;MINX:78.831
;MINY:83.82
;MINZ:0.2
;MAXX:156.169
;MAXY:151.169
;MAXZ:7.4
;Generated with Cura_SteamEngine 5.3.0
M140 S50
M105
M190 S50
M104 S203
M105
M109 S203
M82 ;absolute extrusion mode
; Ender 3 Custom Start G-code
G92 E0 ; Reset Extruder
G28 ; Home all axes
G1 Z2.0 F3000 ; Move Z Axis up little to prevent scratching of Heat Bed
G1 X0.1 Y20 Z0.3 F5000.0 ; Move to start position
G1 X0.1 Y200.0 Z0.3 F1500.0 E15 ; Draw the first line
G1 X0.4 Y200.0 Z0.3 F5000.0 ; Move to side a little
G1 X0.4 Y20 Z0.3 F1500.0 E30 ; Draw the second line
G92 E0 ; Reset Extruder
G1 Z2.0 F3000 ; Move Z Axis up little to prevent scratching of Heat Bed
G1 X5 Y20 Z0.3 F5000.0 ; Move over to prevent blob squish
G92 E0
G92 E0
G1 F2700 E-5
;LAYER_COUNT:37
;LAYER:0
M107
G0 F6000 X80.448 Y85.389 Z0.2
;TYPE:SKIRT
G1 F2700 E0
G1 F1200 X79.798 Y86.186 E0.03421
G1 X79.3 Y87.031 E0.06683
G1 X79.016 Y87.88 E0.0966
G1 X78.831 Y88.791 E0.12752
G1 X78.831 Y89.845 E0.16258
G1 X79.016 Y90.756 E0.1935
G1 X79.3 Y91.605 E0.22327
G1 X79.798 Y92.45 E0.2559
G1 X80.443 Y93.239 E0.28979
G1 X81.14 Y93.799 E0.31953
G1 X81.996 Y94.318 E0.35282
G1 X82.855 Y94.613 E0.38303
G1 X83.784 Y94.806 E0.41459
G1 X84.147 Y94.805 E0.42666
G1 X84.5 Y95.158 E0.44327
G1 X84.5 Y139.842 E1.92946
G1 X84.147 Y140.195 E1.94607
G1 X83.788 Y140.194 E1.95801
G1 X82.757 Y140.414 E1.99307
G1 X82.007 Y140.676 E2.0195
G1 X81.143 Y141.198 E2.05307
G1 X80.446 Y141.759 E2.08283
G1 X79.78 Y142.571 E2.11776
G1 X79.3 Y143.396 E2.1495
G1 X79.016 Y144.244 E2.17925
G1 X78.831 Y145.155 E2.21017
G1 X78.831 Y146.209 E2.24522
G1 X79.016 Y147.12 E2.27614
G1 X79.3 Y147.968 E2.30589
G1 X79.762 Y148.762 E2.33644
G1 X80.441 Y149.603 E2.37239
G1 X81.231 Y150.227 E2.40587
G1 X82.02 Y150.697 E2.43642
G1 X83.092 Y151.038 E2.47383
G1 X83.81 Y151.169 E2.49811
G1 X84.822 Y151.169 E2.53177
G1 X85.49 Y151.051 E2.55433
G1 X86.611 Y150.699 E2.59341
G1 X87.35 Y150.264 E2.62193
G1 X88.192 Y149.605 E2.65749
G1 X88.842 Y148.827 E2.69121
G1 X89.335 Y147.965 E2.72424
G1 X89.586 Y147.242 E2.7497
G1 X89.806 Y146.21 E2.78479
G1 X89.805 Y145.853 E2.79667
G1 X90.158 Y145.5 E2.81327
G1 X144.841 Y145.5 E4.63203
G1 X145.195 Y145.854 E4.64868
G1 X145.194 Y146.183 E4.65963
G1 X145.312 Y146.852 E4.68222
G1 X145.654 Y147.943 E4.72025
G1 X146.153 Y148.826 E4.75398
G1 X146.811 Y149.608 E4.78797
G1 X147.595 Y150.227 E4.8212
G1 X148.384 Y150.697 E4.85174
G1 X149.456 Y151.038 E4.88916
G1 X150.174 Y151.169 E4.91343
G1 X151.186 Y151.169 E4.94709
G1 X151.854 Y151.051 E4.96966
G1 X152.975 Y150.699 E5.00873
G1 X153.714 Y150.264 E5.03726
G1 X154.555 Y149.607 E5.07275
G1 X155.22 Y148.793 E5.10771
G1 X155.7 Y147.968 E5.13946
G1 X155.984 Y147.12 E5.1692
G1 X156.169 Y146.209 E5.20012
G1 X156.169 Y145.152 E5.23528
G1 X155.952 Y144.124 E5.27022
G1 X155.692 Y143.378 E5.2965
G1 X155.177 Y142.522 E5.32972
G1 X154.614 Y141.816 E5.35976
G1 X153.824 Y141.156 E5.394
G1 X152.964 Y140.665 E5.42693
G1 X152.141 Y140.386 E5.45584
G1 X151.213 Y140.194 E5.48736
G1 X150.853 Y140.195 E5.49933
G1 X150.5 Y139.842 E5.51593
G1 X150.5 Y95.158 E7.00213
G1 X150.853 Y94.805 E7.01873
G1 X151.212 Y94.806 E7.03067
G1 X152.243 Y94.586 E7.06574
G1 X152.995 Y94.323 E7.09223
G1 X153.714 Y93.9 E7.11998
G1 X154.555 Y93.243 E7.15547
G1 X155.22 Y92.429 E7.19043
G1 X155.7 Y91.604 E7.22218
G1 X155.984 Y90.756 E7.25192
G1 X156.169 Y89.845 E7.28284
G1 X156.169 Y88.788 E7.318
G1 X155.952 Y87.76 E7.35294
G1 X155.691 Y87.015 E7.3792
G1 X155.249 Y86.262 E7.40824
G1 X154.617 Y85.456 E7.44231
G1 X153.826 Y84.789 E7.47672
G1 X152.942 Y84.29 E7.51048
G1 X151.854 Y83.949 E7.54841
G1 X151.186 Y83.831 E7.57097
G1 X150.178 Y83.831 E7.60449
G1 X149.51 Y83.949 E7.62706
G1 X148.386 Y84.303 E7.66625
G1 X147.566 Y84.792 E7.69801
G1 X146.816 Y85.385 E7.72981
G1 X146.156 Y86.176 E7.76407
G1 X145.665 Y87.035 E7.79698
G1 X145.414 Y87.758 E7.82243
G1 X145.194 Y88.79 E7.85753
G1 X145.195 Y89.147 E7.8694
G1 X144.842 Y89.5 E7.88601
G1 X90.159 Y89.5 E9.70477
G1 X89.805 Y89.146 E9.72142
G1 X89.806 Y88.788 E9.73333
G1 X89.586 Y87.757 E9.76839
G1 X89.324 Y87.008 E9.79478
G1 X88.833 Y86.188 E9.82657
G1 X88.24 Y85.448 E9.85811
G1 X87.464 Y84.795 E9.89185
G1 X86.581 Y84.291 E9.92566
G1 X85.727 Y84.008 E9.95558
G1 X84.757 Y83.82 E9.98845
G1 X83.659 Y83.862 E10.02499
G1 X83.166 Y83.944 E10.04162
G1 X82.029 Y84.3 E10.08124
G1 X81.254 Y84.757 E10.11117
G1 X80.448 Y85.389 E10.14523
G0 F6000 X80.73 Y85.676
G1 F1200 X80.108 Y86.439 E10.17797
G1 X79.666 Y87.198 E10.20719
G1 X79.408 Y87.96 E10.23395
G1 X79.231 Y88.832 E10.26354
G1 X79.231 Y89.804 E10.29587
G1 X79.408 Y90.676 E10.32546
G1 X79.666 Y91.438 E10.35222
G1 X80.108 Y92.197 E10.38143
G1 X80.725 Y92.952 E10.41386
G1 X81.391 Y93.487 E10.44228
G1 X82.167 Y93.954 E10.4724
G1 X82.936 Y94.221 E10.49947
G1 X83.826 Y94.406 E10.52971
G1 X84.313 Y94.405 E10.54591
G1 X84.9 Y94.992 E10.57352
G1 X84.9 Y140.008 E12.07076
G1 X84.313 Y140.595 E12.09837
G1 X83.828 Y140.594 E12.1145
G1 X82.889 Y140.792 E12.14642
G1 X82.177 Y141.041 E12.1715
G1 X81.394 Y141.51 E12.20186
G1 X80.727 Y142.047 E12.23034
G1 X80.126 Y142.772 E12.26166
G1 X79.666 Y143.562 E12.29207
G1 X79.408 Y144.324 E12.31883
G1 X79.231 Y145.196 E12.34842
G1 X79.231 Y146.168 E12.38075
G1 X79.408 Y147.04 E12.41034
G1 X79.666 Y147.802 E12.4371
G1 X80.108 Y148.561 E12.46631
G1 X80.725 Y149.317 E12.49877
G1 X81.436 Y149.883 E12.529
G1 X82.187 Y150.33 E12.55806
G1 X83.164 Y150.644 E12.5922
G1 X83.849 Y150.769 E12.61536
G1 X84.786 Y150.769 E12.64652
G1 X85.42 Y150.657 E12.66793
G1 X86.445 Y150.332 E12.7037
G1 X87.147 Y149.919 E12.73079
G1 X87.909 Y149.319 E12.76305
G1 X88.515 Y148.594 E12.79447
G1 X88.968 Y147.801 E12.82485
G1 X89.208 Y147.111 E12.84915
G1 X89.406 Y146.171 E12.8811
G1 X89.405 Y145.687 E12.8972
G1 X89.992 Y145.1 E12.92481
G1 X145.007 Y145.1 E14.75461
G1 X145.595 Y145.688 E14.78227
G1 X145.594 Y146.148 E14.79757
G1 X145.706 Y146.782 E14.81898
G1 X146.023 Y147.782 E14.85387
G1 X146.482 Y148.595 E14.88493
G1 X147.092 Y149.32 E14.91644
G1 X147.8 Y149.883 E14.94653
G1 X148.551 Y150.33 E14.97559
G1 X149.528 Y150.644 E15.00973
G1 X150.213 Y150.769 E15.03289
G1 X151.15 Y150.769 E15.06405
G1 X151.784 Y150.657 E15.08546
G1 X152.809 Y150.332 E15.12123
G1 X153.511 Y149.919 E15.14832
G1 X154.274 Y149.318 E15.18062
G1 X154.874 Y148.592 E15.21195
G1 X155.334 Y147.802 E15.24235
G1 X155.592 Y147.04 E15.26911
G1 X155.769 Y146.168 E15.29871
G1 X155.769 Y145.195 E15.33107
G1 X155.574 Y144.256 E15.36297
G1 X155.326 Y143.545 E15.38801
G1 X154.864 Y142.771 E15.41799
G1 X154.326 Y142.096 E15.4467
G1 X153.594 Y141.485 E15.47841
G1 X152.8 Y141.032 E15.50882
G1 X152.06 Y140.778 E15.53484
G1 X151.171 Y140.594 E15.56503
G1 X150.687 Y140.595 E15.58113
G1 X150.1 Y140.008 E15.60874
G1 X150.1 Y94.992 E17.10598
G1 X150.687 Y94.405 E17.13359
G1 X151.172 Y94.406 E17.14972
G1 X152.111 Y94.208 E17.18164
G1 X152.826 Y93.958 E17.20683
G1 X153.511 Y93.555 E17.23327
G1 X154.274 Y92.954 E17.26557
G1 X154.874 Y92.228 E17.2969
G1 X155.334 Y91.438 E17.3273
G1 X155.592 Y90.676 E17.35406
G1 X155.769 Y89.804 E17.38366
G1 X155.769 Y88.831 E17.41602
G1 X155.574 Y87.892 E17.44792
G1 X155.326 Y87.183 E17.4729
G1 X154.934 Y86.509 E17.49883
G1 X154.327 Y85.735 E17.53155
G1 X153.595 Y85.118 E17.56339
G1 X152.782 Y84.659 E17.59444
G1 X151.784 Y84.343 E17.62926
G1 X151.15 Y84.231 E17.65067
G1 X150.214 Y84.231 E17.6818
G1 X149.58 Y84.343 E17.70322
G1 X148.554 Y84.669 E17.73902
G1 X147.771 Y85.136 E17.76935
G1 X147.096 Y85.674 E17.79805
G1 X146.485 Y86.406 E17.82977
G1 X146.032 Y87.199 E17.86014
G1 X145.792 Y87.889 E17.88444
G1 X145.594 Y88.829 E17.91639
G1 X145.595 Y89.313 E17.93249
G1 X145.008 Y89.9 E17.9601
G1 X89.993 Y89.9 E19.78991
G1 X89.405 Y89.312 E19.81756
G1 X89.406 Y88.828 E19.83366
G1 X89.208 Y87.889 E19.86558
G1 X88.959 Y87.177 E19.89067
G1 X88.49 Y86.394 E19.92103
G1 X87.953 Y85.728 E19.94948
G1 X87.234 Y85.124 E19.98071
G1 X86.421 Y84.66 E20.01185
G1 X85.601 Y84.388 E20.04058
G1 X84.727 Y84.222 E20.07017
G1 X83.725 Y84.257 E20.10352
G1 X83.232 Y84.339 E20.12014
G1 X82.195 Y84.667 E20.15632
G1 X81.457 Y85.102 E20.18481
G1 X80.73 Y85.676 E20.21562
G0 F6000 X81.012 Y85.963
G1 F1200 X81.705 Y85.416 E20.24498
G1 X82.359 Y85.035 E20.27015
G1 X83.298 Y84.734 E20.30295
G1 X83.791 Y84.652 E20.31957
G1 X84.698 Y84.623 E20.34976
G1 X85.475 Y84.768 E20.37605
G1 X86.261 Y85.029 E20.40359
G1 X87.004 Y85.453 E20.43204
G1 X87.667 Y86.009 E20.46082
G1 X88.147 Y86.6 E20.48615
G1 X88.594 Y87.346 E20.51507
G1 X88.83 Y88.021 E20.53886
G1 X89.006 Y88.871 E20.56773
G1 X89.004 Y89.478 E20.58792
G1 X89.827 Y90.3 E20.6266
G1 X145.174 Y90.3 E22.46745
G1 X145.996 Y89.478 E22.50612
G1 X145.994 Y88.872 E22.52627
G1 X146.17 Y88.021 E22.55518
G1 X146.4 Y87.361 E22.57842
G1 X146.812 Y86.639 E22.60607
G1 X147.377 Y85.963 E22.63537
G1 X148.021 Y85.449 E22.66278
G1 X148.719 Y85.036 E22.68975
G1 X149.65 Y84.737 E22.72228
G1 X150.25 Y84.631 E22.74254
G1 X151.114 Y84.631 E22.77128
G1 X151.714 Y84.737 E22.79154
G1 X152.622 Y85.028 E22.82326
G1 X153.364 Y85.447 E22.8516
G1 X154.037 Y86.014 E22.88087
G1 X154.619 Y86.756 E22.91223
G1 X154.96 Y87.349 E22.93499
G1 X155.196 Y88.024 E22.95877
G1 X155.369 Y88.872 E22.98755
G1 X155.369 Y89.765 E23.01726
G1 X155.213 Y90.547 E23.04378
G1 X154.967 Y91.272 E23.06924
G1 X154.528 Y92.027 E23.09829
G1 X153.994 Y92.666 E23.12599
G1 X153.308 Y93.21 E23.15511
G1 X152.657 Y93.593 E23.18023
G1 X151.979 Y93.83 E23.20412
G1 X151.129 Y94.006 E23.23299
G1 X150.522 Y94.004 E23.25318
G1 X149.7 Y94.826 E23.29184
G1 X149.7 Y140.174 E24.80012
G1 X150.522 Y140.996 E24.83879
G1 X151.129 Y140.994 E24.85897
G1 X151.979 Y141.17 E24.88785
G1 X152.637 Y141.399 E24.91102
G1 X153.361 Y141.812 E24.93874
G1 X154.037 Y142.377 E24.96804
G1 X154.551 Y143.021 E24.99545
G1 X154.961 Y143.713 E25.0222
G1 X155.196 Y144.388 E25.04597
G1 X155.369 Y145.236 E25.07476
G1 X155.369 Y146.129 E25.10446
G1 X155.213 Y146.911 E25.13098
G1 X154.967 Y147.636 E25.15645
G1 X154.528 Y148.391 E25.18549
G1 X153.994 Y149.03 E25.21319
G1 X153.308 Y149.574 E25.24231
G1 X152.644 Y149.965 E25.26794
G1 X151.714 Y150.263 E25.30042
G1 X151.114 Y150.369 E25.32069
G1 X150.25 Y150.369 E25.34942
G1 X149.65 Y150.263 E25.36969
G1 X148.718 Y149.964 E25.40224
G1 X148.005 Y149.539 E25.42985
G1 X147.374 Y149.033 E25.45675
G1 X146.811 Y148.364 E25.48583
G1 X146.392 Y147.622 E25.51418
G1 X146.1 Y146.712 E25.54596
G1 X145.994 Y146.112 E25.56623
G1 X145.996 Y145.522 E25.58585
G1 X145.173 Y144.7 E25.62454
G1 X89.826 Y144.7 E27.46539
G1 X89.004 Y145.522 E27.50405
G1 X89.006 Y146.128 E27.52421
G1 X88.83 Y146.979 E27.55311
G1 X88.6 Y147.639 E27.57636
G1 X88.188 Y148.361 E27.60401
G1 X87.627 Y149.032 E27.6331
G1 X86.944 Y149.574 E27.6621
G1 X86.28 Y149.965 E27.68773
G1 X85.35 Y150.263 E27.72021
G1 X84.75 Y150.369 E27.74047
G1 X83.886 Y150.369 E27.76921
G1 X83.286 Y150.263 E27.78947
G1 X82.354 Y149.964 E27.82203
G1 X81.641 Y149.539 E27.84964
G1 X81.008 Y149.031 E27.87663
G1 X80.454 Y148.36 E27.90557
G1 X80.033 Y147.636 E27.93343
G1 X79.787 Y146.911 E27.95889
G1 X79.631 Y146.129 E27.98541
G1 X79.631 Y145.235 E28.01515
G1 X79.787 Y144.453 E28.04167
G1 X80.033 Y143.728 E28.06714
G1 X80.472 Y142.973 E28.09618
G1 X81.009 Y142.333 E28.12397
G1 X81.6 Y141.853 E28.14929
G1 X82.346 Y141.406 E28.17822
G1 X83.021 Y141.17 E28.202
G1 X83.871 Y140.994 E28.23087
G1 X84.478 Y140.996 E28.25106
G1 X85.3 Y140.174 E28.28973
G1 X85.3 Y94.826 E29.79801
G1 X84.478 Y94.004 E29.83667
G1 X83.868 Y94.006 E29.85696
G1 X83.017 Y93.829 E29.88587
G1 X82.338 Y93.591 E29.9098
G1 X81.641 Y93.175 E29.9368
G1 X81.008 Y92.667 E29.96379
G1 X80.454 Y91.996 E29.99273
G1 X80.033 Y91.272 E30.02059
G1 X79.787 Y90.547 E30.04605
G1 X79.631 Y89.765 E30.07258
G1 X79.631 Y88.871 E30.10231
G1 X79.787 Y88.089 E30.12883
G1 X80.033 Y87.364 E30.1543
G1 X80.454 Y86.64 E30.18215
G1 X81.012 Y85.963 E30.21133
G0 F6000 X81.293 Y86.251
G1 F1200 X81.906 Y85.762 E30.23741
G1 X82.524 Y85.402 E30.2612
G1 X83.364 Y85.129 E30.29058
G1 X83.857 Y85.047 E30.3072
G1 X84.666 Y85.024 E30.33412
G1 X85.349 Y85.148 E30.35721
G1 X86.101 Y85.398 E30.38356
G1 X86.771 Y85.78 E30.40922
G1 X87.381 Y86.291 E30.43568
G1 X87.836 Y86.852 E30.45971
G1 X88.229 Y87.515 E30.48534
G1 X88.452 Y88.153 E30.50782
G1 X88.606 Y88.912 E30.53358
G1 X88.604 Y89.644 E30.55793
G1 X89.661 Y90.7 E30.60762
G1 X145.34 Y90.7 E32.45951
G1 X146.396 Y89.644 E32.50918
G1 X146.394 Y88.914 E32.53346
G1 X146.562 Y88.102 E32.56104
G1 X146.767 Y87.524 E32.58144
G1 X147.141 Y86.869 E32.60653
G1 X147.657 Y86.251 E32.6333
G1 X148.27 Y85.762 E32.65938
G1 X148.884 Y85.403 E32.68304
G1 X149.72 Y85.131 E32.71228
G1 X150.286 Y85.031 E32.7314
G1 X151.078 Y85.031 E32.75774
G1 X151.644 Y85.131 E32.77686
G1 X152.46 Y85.396 E32.80539
G1 X153.133 Y85.776 E32.8311
G1 X153.748 Y86.294 E32.85784
G1 X154.272 Y86.956 E32.88592
G1 X154.595 Y87.517 E32.90745
G1 X154.818 Y88.156 E32.92996
G1 X154.969 Y88.911 E32.95557
G1 X154.969 Y89.724 E32.98261
G1 X154.834 Y90.418 E33.00613
G1 X154.6 Y91.106 E33.0303
G1 X154.2 Y91.795 E33.0568
G1 X153.711 Y92.38 E33.08216
G1 X153.105 Y92.865 E33.10797
G1 X152.488 Y93.228 E33.13178
G1 X151.847 Y93.452 E33.15437
G1 X151.088 Y93.606 E33.18012
G1 X150.356 Y93.604 E33.20447
G1 X149.3 Y94.66 E33.25414
G1 X149.3 Y140.34 E34.77346
G1 X150.356 Y141.396 E34.82314
G1 X151.088 Y141.394 E34.84748
G1 X151.847 Y141.548 E34.87324
G1 X152.475 Y141.767 E34.89536
G1 X153.131 Y142.141 E34.92048
G1 X153.749 Y142.657 E34.94726
G1 X154.238 Y143.27 E34.97334
G1 X154.595 Y143.88 E34.99684
G1 X154.818 Y144.52 E35.01939
G1 X154.969 Y145.275 E35.04499
G1 X154.969 Y146.088 E35.07204
G1 X154.834 Y146.782 E35.09555
G1 X154.6 Y147.47 E35.11972
G1 X154.2 Y148.159 E35.14622
G1 X153.711 Y148.744 E35.17158
G1 X153.105 Y149.229 E35.19739
G1 X152.476 Y149.599 E35.22167
G1 X151.644 Y149.869 E35.25076
G1 X151.078 Y149.969 E35.26988
G1 X150.286 Y149.969 E35.29622
G1 X149.72 Y149.869 E35.31533
G1 X148.887 Y149.598 E35.34447
G1 X148.21 Y149.195 E35.37067
G1 X147.655 Y148.745 E35.39444
G1 X147.14 Y148.133 E35.42104
G1 X146.76 Y147.46 E35.44675
G1 X146.494 Y146.642 E35.47536
G1 X146.394 Y146.077 E35.49444
G1 X146.396 Y145.356 E35.51842
G1 X145.339 Y144.3 E35.56812
G1 X89.66 Y144.3 E37.42001
G1 X88.604 Y145.356 E37.46968
G1 X88.606 Y146.086 E37.49396
G1 X88.438 Y146.898 E37.52154
G1 X88.233 Y147.476 E37.54194
G1 X87.859 Y148.131 E37.56702
G1 X87.347 Y148.744 E37.59359
G1 X86.741 Y149.229 E37.6194
G1 X86.112 Y149.599 E37.64367
G1 X85.28 Y149.869 E37.67277
G1 X84.714 Y149.969 E37.69188
G1 X83.922 Y149.969 E37.71823
G1 X83.356 Y149.869 E37.73734
G1 X82.523 Y149.598 E37.76648
G1 X81.846 Y149.195 E37.79268
G1 X81.288 Y148.743 E37.81657
G1 X80.8 Y148.159 E37.84188
G1 X80.4 Y147.47 E37.86838
G1 X80.166 Y146.782 E37.89255
G1 X80.031 Y146.088 E37.91606
G1 X80.031 Y145.276 E37.94307
G1 X80.166 Y144.582 E37.96659
G1 X80.4 Y143.894 E37.99076
G1 X80.8 Y143.205 E38.01725
G1 X81.291 Y142.619 E38.04268
G1 X81.852 Y142.164 E38.06671
G1 X82.515 Y141.771 E38.09234
G1 X83.153 Y141.548 E38.11482
G1 X83.912 Y141.394 E38.14058
G1 X84.644 Y141.396 E38.16492
G1 X85.7 Y140.34 E38.2146
G1 X85.7 Y94.66 E39.73392
G1 X84.644 Y93.604 E39.78359
G1 X83.911 Y93.606 E39.80797
G1 X83.099 Y93.437 E39.83556
G1 X82.51 Y93.227 E39.85635
G1 X81.846 Y92.831 E39.88207
G1 X81.288 Y92.379 E39.90595
G1 X80.8 Y91.795 E39.93126
G1 X80.4 Y91.106 E39.95776
G1 X80.166 Y90.418 E39.98193
G1 X80.031 Y89.724 E40.00545
G1 X80.031 Y88.912 E40.03246
G1 X80.166 Y88.218 E40.05597
G1 X80.4 Y87.53 E40.08014
G1 X80.8 Y86.841 E40.10664
